X: 43
T:Father Kelly's
R:Reel
S:P. Haverty
M:C|
L:1/8
Q:1/2=112
K:G
GA|B2GB AGEG|DGGF GABd|c2AB cBAG|EAAG ABcA|
B2GB AGEG|DGGF GABc|d2Bd gdBd|cAFA G2:|
Bc|d2Bd gdBd|d2Bd gdBd|e2ce agfe|defg agfe|
d2Bd gdBd|d2Bd gdBd|c2Ac B2GB|AGFA G2:|
